X: 4273
M: C|
L: 1/8
K: A
|:\
[1 A>ce>c a>ec>A | B2e2 B2e2 :|\
[2 e>ag>f (3efe (3dcB | A2c2A2 z2 |]
|:\
[1 A2c>e A2c>e | B2e2 B2e2 :|\
[2 e>a g>f (3efe (3dcB | A2a2A2 z2 |]


